papirus/48x48/apps/netbeans.svg

<?xml version="1.0" encoding="UTF-8" standalone="no"?>
<!-- Created with Inkscape (http://www.inkscape.org/) -->

<svg
   xmlns:dc="http://purl.org/dc/elements/1.1/"
   xmlns:cc="http://creativecommons.org/ns#"
   xmlns:rdf="http://www.w3.org/1999/02/22-rdf-syntax-ns#"
   xmlns:svg="http://www.w3.org/2000/svg"
   xmlns="http://www.w3.org/2000/svg"
   xmlns:sodipodi="http://sodipodi.sourceforge.net/DTD/sodipodi-0.dtd"
   xmlns:inkscape="http://www.inkscape.org/namespaces/inkscape"
   width="48"
   height="48"
   viewBox="0 0 48 48.000001"
   id="svg4195"
   version="1.1"
   inkscape:version="0.91 r13725"
   sodipodi:docname="netbeans.svg">
  <defs
     id="defs4197" />
  <sodipodi:namedview
     id="base"
     pagecolor="#ffffff"
     bordercolor="#666666"
     borderopacity="1.0"
     inkscape:pageopacity="0.0"
     inkscape:pageshadow="2"
     inkscape:zoom="6.56"
     inkscape:cx="13.726425"
     inkscape:cy="28.953962"
     inkscape:document-units="px"
     inkscape:current-layer="layer1"
     showgrid="false"
     units="px"
     inkscape:window-width="1600"
     inkscape:window-height="849"
     inkscape:window-x="0"
     inkscape:window-y="0"
     inkscape:window-maximized="1" />
  <metadata
     id="metadata4200">
    <rdf:RDF>
      <cc:Work
         rdf:about="">
        <dc:format>image/svg+xml</dc:format>
        <dc:type
           rdf:resource="http://purl.org/dc/dcmitype/StillImage" />
        <dc:title></dc:title>
      </cc:Work>
    </rdf:RDF>
  </metadata>
  <g
     inkscape:label="Layer 1"
     inkscape:groupmode="layer"
     id="layer1"
     transform="translate(0,-1004.3622)">
    <path
       style="color:#000000;font-style:normal;font-variant:normal;font-weight:normal;font-stretch:normal;font-size:medium;line-height:normal;font-family:sans-serif;text-indent:0;text-align:start;text-decoration:none;text-decoration-line:none;text-decoration-style:solid;text-decoration-color:#000000;letter-spacing:normal;word-spacing:normal;text-transform:none;direction:ltr;block-progression:tb;writing-mode:lr-tb;baseline-shift:baseline;text-anchor:start;white-space:normal;clip-rule:nonzero;display:inline;overflow:visible;visibility:visible;opacity:1;isolation:auto;mix-blend-mode:normal;color-interpolation:sRGB;color-interpolation-filters:linearRGB;solid-color:#000000;solid-opacity:1;fill:#e36d6d;fill-opacity:1;fill-rule:nonzero;stroke:none;stroke-width:4;stroke-linecap:square;stroke-linejoin:round;stroke-miterlimit:4;stroke-dasharray:none;stroke-dashoffset:0;stroke-opacity:1;color-rendering:auto;image-rendering:auto;shape-rendering:auto;text-rendering:auto;enable-background:accumulate"
       d="m 24.049662,1008.363 c -0.388665,-0.01 -0.772326,0.087 -1.108971,0.2771 l -15.881382,8.9641 c -0.655596,0.3701 -1.059408,1.054 -1.059309,1.7941 l 0,17.9283 c -9.9e-5,0.7401 0.403713,1.4241 1.059309,1.7941 l 15.881382,8.9642 c 0.655506,0.3698 1.463112,0.3698 2.118618,0 l 15.881382,-8.9642 c 0.655596,-0.37 1.059408,-1.054 1.059309,-1.7941 l 0,-17.9283 c 9.9e-5,-0.7401 -0.403713,-1.424 -1.059309,-1.7941 l -15.881382,-8.9641 c -0.307485,-0.1736 -0.65466,-0.2689 -1.009647,-0.2771 z"
       id="path4147"
       inkscape:connector-curvature="0"
       sodipodi:nodetypes="cccccccccccccc" />
    <path
       sodipodi:nodetypes="cccccccc"
       inkscape:connector-curvature="0"
       id="path4157"
       d="m 24,1048.3622 c -0.365778,0 -0.730836,-0.094 -1.058589,-0.2787 L 7.058589,1039.121 C 6.402993,1038.751 5.999901,1038.0663 6,1037.3263 l 0,-17.9287 c -3.6e-5,-0.301 0.06669,-0.5926 0.189927,-0.8575 L 24,1028.362 Z"
       style="color:#000000;font-style:normal;font-variant:normal;font-weight:normal;font-stretch:normal;font-size:medium;line-height:normal;font-family:sans-serif;text-indent:0;text-align:start;text-decoration:none;text-decoration-line:none;text-decoration-style:solid;text-decoration-color:#000000;letter-spacing:normal;word-spacing:normal;text-transform:none;direction:ltr;block-progression:tb;writing-mode:lr-tb;baseline-shift:baseline;text-anchor:start;white-space:normal;clip-rule:nonzero;display:inline;overflow:visible;visibility:visible;opacity:0.5;isolation:auto;mix-blend-mode:normal;color-interpolation:sRGB;color-interpolation-filters:linearRGB;solid-color:#000000;solid-opacity:1;fill:#f78d8d;fill-opacity:1;fill-rule:nonzero;stroke:none;stroke-width:4;stroke-linecap:square;stroke-linejoin:round;stroke-miterlimit:4;stroke-dasharray:none;stroke-dashoffset:0;stroke-opacity:1;color-rendering:auto;image-rendering:auto;shape-rendering:auto;text-rendering:auto;enable-background:accumulate" />
    <path
       style="color:#000000;font-style:normal;font-variant:normal;font-weight:normal;font-stretch:normal;font-size:medium;line-height:normal;font-family:sans-serif;text-indent:0;text-align:start;text-decoration:none;text-decoration-line:none;text-decoration-style:solid;text-decoration-color:#000000;letter-spacing:normal;word-spacing:normal;text-transform:none;direction:ltr;block-progression:tb;writing-mode:lr-tb;baseline-shift:baseline;text-anchor:start;white-space:normal;clip-rule:nonzero;display:inline;overflow:visible;visibility:visible;opacity:0.5;isolation:auto;mix-blend-mode:normal;color-interpolation:sRGB;color-interpolation-filters:linearRGB;solid-color:#000000;solid-opacity:1;fill:#e64d4d;fill-opacity:1;fill-rule:nonzero;stroke:none;stroke-width:4;stroke-linecap:square;stroke-linejoin:round;stroke-miterlimit:4;stroke-dasharray:none;stroke-dashoffset:0;stroke-opacity:1;color-rendering:auto;image-rendering:auto;shape-rendering:auto;text-rendering:auto;enable-background:accumulate"
       d="m 24,1048.3622 c 0.365778,0 0.730836,-0.094 1.058589,-0.2787 l 15.882822,-8.9625 c 0.655596,-0.37 1.058688,-1.0547 1.058589,-1.7947 l 0,-17.9287 c 3.6e-5,-0.301 -0.06669,-0.5926 -0.189927,-0.8575 L 24,1028.362 Z"
       id="path4159"
       inkscape:connector-curvature="0"
       sodipodi:nodetypes="cccccccc" />
    <path
       style="color:#000000;font-style:normal;font-variant:normal;font-weight:normal;font-stretch:normal;font-size:medium;line-height:normal;font-family:sans-serif;text-indent:0;text-align:start;text-decoration:none;text-decoration-line:none;text-decoration-style:solid;text-decoration-color:#000000;letter-spacing:normal;word-spacing:normal;text-transform:none;direction:ltr;block-progression:tb;writing-mode:lr-tb;baseline-shift:baseline;text-anchor:start;white-space:normal;clip-rule:nonzero;display:inline;overflow:visible;visibility:visible;opacity:0.2;isolation:auto;mix-blend-mode:normal;color-interpolation:sRGB;color-interpolation-filters:linearRGB;solid-color:#000000;solid-opacity:1;fill:#ffffff;fill-opacity:1;fill-rule:nonzero;stroke:none;stroke-width:4;stroke-linecap:square;stroke-linejoin:round;stroke-miterlimit:4;stroke-dasharray:none;stroke-dashoffset:0;stroke-opacity:1;color-rendering:auto;image-rendering:auto;shape-rendering:auto;text-rendering:auto;enable-background:accumulate"
       d="M 24.048828 4 C 23.660163 3.99 23.278051 4.0872437 22.941406 4.2773438 L 7.0585938 13.242188 C 6.4029977 13.612287 5.999901 14.295056 6 15.035156 L 6 16.035156 C 5.999901 15.295056 6.4029977 14.612287 7.0585938 14.242188 L 22.941406 5.2773438 C 23.278051 5.0872437 23.660163 4.99 24.048828 5 C 24.403815 5.0082 24.751109 5.1037438 25.058594 5.2773438 L 40.941406 14.242188 C 41.597002 14.612287 42.000099 15.295056 42 16.035156 L 42 15.035156 C 42.000099 14.295056 41.597002 13.612287 40.941406 13.242188 L 25.058594 4.2773438 C 24.751109 4.1037438 24.403815 4.0082 24.048828 4 z "
       transform="translate(0,1004.3622)"
       id="path4774" />
    <path
       style="color:#000000;font-style:normal;font-variant:normal;font-weight:normal;font-stretch:normal;font-size:medium;line-height:normal;font-family:sans-serif;text-indent:0;text-align:start;text-decoration:none;text-decoration-line:none;text-decoration-style:solid;text-decoration-color:#000000;letter-spacing:normal;word-spacing:normal;text-transform:none;direction:ltr;block-progression:tb;writing-mode:lr-tb;baseline-shift:baseline;text-anchor:start;white-space:normal;clip-rule:nonzero;display:inline;overflow:visible;visibility:visible;opacity:0.3;isolation:auto;mix-blend-mode:normal;color-interpolation:sRGB;color-interpolation-filters:linearRGB;solid-color:#000000;solid-opacity:1;fill:#000000;fill-opacity:1;fill-rule:nonzero;stroke:none;stroke-width:4;stroke-linecap:square;stroke-linejoin:round;stroke-miterlimit:4;stroke-dasharray:none;stroke-dashoffset:0;stroke-opacity:1;color-rendering:auto;image-rendering:auto;shape-rendering:auto;text-rendering:auto;enable-background:accumulate"
       d="M 6 31.964844 L 6 32.964844 C 5.999901 33.704944 6.4029977 34.387812 7.0585938 34.757812 L 22.941406 43.722656 C 23.596912 44.092456 24.403088 44.092456 25.058594 43.722656 L 40.941406 34.757812 C 41.597002 34.387813 42.000099 33.704944 42 32.964844 L 42 31.964844 C 42.000099 32.704944 41.597002 33.387813 40.941406 33.757812 L 25.058594 42.722656 C 24.403088 43.092456 23.596912 43.092456 22.941406 42.722656 L 7.0585938 33.757812 C 6.4029977 33.387812 5.999901 32.704944 6 31.964844 z "
       transform="translate(0,1004.3622)"
       id="path4779" />
  </g>
</svg>

<?xml version="1.0" encoding="UTF-8" standalone="no"?>
<svg id="svg4195" xmlns:rdf="http://www.w3.org/1999/02/22-rdf-syntax-ns#" xmlns="http://www.w3.org/2000/svg" viewBox="0 0 48 48.000001" width="48" version="1.1" xmlns:cc="http://creativecommons.org/ns#" height="48" xmlns:dc="http://purl.org/dc/elements/1.1/">
 <metadata id="metadata4200">
  <rdf:RDF>
   <cc:Work rdf:about="">
    <dc:format>image/svg+xml</dc:format>
    <dc:type rdf:resource="http://purl.org/dc/dcmitype/StillImage"/>
    <dc:title/>
   </cc:Work>
  </rdf:RDF>
 </metadata>
 <g id="layer1" transform="translate(0 -1004.4)">
  <path id="path4147" style="color-rendering:auto;text-decoration-color:#000000;color:#000000;isolation:auto;mix-blend-mode:normal;shape-rendering:auto;solid-color:#000000;block-progression:tb;text-decoration-line:none;text-decoration-style:solid;image-rendering:auto;white-space:normal;text-indent:0;text-transform:none" d="m24.05 1008.4c-0.38866-0.01-0.77233 0.087-1.109 0.2771l-15.881 8.9641c-0.6556 0.3701-1.0594 1.054-1.0593 1.7941v17.928c-0.000099 0.7401 0.40371 1.4241 1.0593 1.7941l15.881 8.9642c0.65551 0.3698 1.4631 0.3698 2.1186 0l15.881-8.9642c0.6556-0.37 1.0594-1.054 1.0593-1.7941v-17.928c0.000099-0.7401-0.40371-1.424-1.0593-1.7941l-15.881-8.9641c-0.30748-0.1736-0.65466-0.2689-1.0096-0.2771z" fill="#e36d6d"/>
  <path id="path4157" opacity=".5" style="color-rendering:auto;text-decoration-color:#000000;color:#000000;isolation:auto;mix-blend-mode:normal;shape-rendering:auto;solid-color:#000000;block-progression:tb;text-decoration-line:none;text-decoration-style:solid;image-rendering:auto;white-space:normal;text-indent:0;text-transform:none" d="m24 1048.4c-0.36578 0-0.73084-0.094-1.0586-0.2787l-15.882-9c-0.656-0.3-1.0591-1-1.059-1.8v-17.929c-0.000036-0.301 0.06669-0.5926 0.18993-0.8575l17.81 9.9z" fill="#f78d8d"/>
  <path id="path4159" opacity=".5" style="color-rendering:auto;text-decoration-color:#000000;color:#000000;isolation:auto;mix-blend-mode:normal;shape-rendering:auto;solid-color:#000000;block-progression:tb;text-decoration-line:none;text-decoration-style:solid;image-rendering:auto;white-space:normal;text-indent:0;text-transform:none" d="m24 1048.4c0.36578 0 0.73084-0.094 1.0586-0.2787l15.883-8.9625c0.6556-0.37 1.0587-1.0547 1.0586-1.7947v-17.929c0.000036-0.301-0.06669-0.5926-0.18993-0.8575l-17.811 9.9z" fill="#e64d4d"/>
  <path id="path4774" opacity=".2" style="color-rendering:auto;text-decoration-color:#000000;color:#000000;isolation:auto;mix-blend-mode:normal;shape-rendering:auto;solid-color:#000000;block-progression:tb;text-decoration-line:none;text-decoration-style:solid;image-rendering:auto;white-space:normal;text-indent:0;text-transform:none" d="m24.049 4c-0.389-0.01-0.771 0.0872-1.108 0.2773l-15.882 8.9647c-0.656 0.37-1.0591 1.053-1.059 1.793v1c-0.0001-0.74 0.403-1.423 1.0586-1.793l15.882-8.9647c0.337-0.1901 0.719-0.2873 1.108-0.2773 0.355 0.0082 0.702 0.1037 1.01 0.2773l15.882 8.9647c0.656 0.37 1.059 1.053 1.059 1.793v-1c0-0.74-0.403-1.423-1.059-1.793l-15.882-8.9647c-0.308-0.1736-0.655-0.2691-1.01-0.2773z" transform="translate(0 1004.4)" fill="#fff"/>
  <path id="path4779" opacity=".2" style="color-rendering:auto;text-decoration-color:#000000;color:#000000;isolation:auto;mix-blend-mode:normal;shape-rendering:auto;solid-color:#000000;block-progression:tb;text-decoration-line:none;text-decoration-style:solid;image-rendering:auto;white-space:normal;text-indent:0;text-transform:none" d="m6 1037.3v1c-0.000099 0.7401 0.403 1.423 1.0586 1.793l15.883 8.9649c0.65551 0.3698 1.4617 0.3698 2.1172 0l15.883-8.9649c0.6556-0.37 1.0587-1.0529 1.0586-1.793v-1c0.000099 0.7401-0.403 1.423-1.0586 1.793l-15.883 8.9649c-0.65551 0.3698-1.4617 0.3698-2.1172 0l-15.883-9c-0.656-0.3-1.0591-1-1.059-1.8z"/>
 </g>
</svg>
